source/icons/justify-left.svg

<svg xmlns="http://www.w3.org/2000/svg" width="8" height="8" viewBox="0 0 8 8">
  <path d="M0 0v1h8v-1h-8zm0 2v1h8v-1h-8zm0 2v1h8v-1h-8zm0 2v1h6v-1h-6z" />
</svg>

<svg xmlns="http://www.w3.org/2000/svg" width="8" height="8" viewBox="0 0 8 8"><path d="M0 0v1h8V0H0zm0 2v1h8V2H0zm0 2v1h8V4H0zm0 2v1h6V6H0z"/></svg>
